X: 1718
T: Sen Şeh-i Hüsn
C: III. Selim (İlhâmî)
O: Turkey
F: http://compmusic.upf.edu/node/140
N: mahur--sarki--agir_aksaksemai--sen_seh-i--iii_selim
N: makam= mahur
N: form= sarki
N: usul= agir_aksaksemai = 10/4
M: 10/4
L: 1/16
K: C ^9/8f   
Q: 1/4=60
%%MIDI tuningsystem comma53
g6f2 g4 a8 a3g g3f a3g gagf fef2  | \
w:   | 
agfe d4 d4 e4 (3gfef2 f2de fgab a3g g3f baga  | 
w:   | 
g4 z4 f4 g8 g3f fgfe a3g g3f fgfe  | \
w:   | 
agfe d2z2 d4 e8 c2d2 (3e2f2g2 bagf e=fef eg^fe  | 
w:   | 
e4 z4 ^c2d2 e8 e2c2 d2e2 e2^f2 g2f2 bagf  | \
w:   | 
e4 z4 g2=f2 f4 fgfe e2d6 edcd c3B edcd  | 
w:   | 
c4 z4 d3c cBc2 BcBc BcBA G2AB A2B2 BcBA BAGA  | 
w:   | 
B4 B2AG FGA8G2 A2Bc deed cBBA GFB2 (3AGAG4z4g2 fga8a3gg3fa3gg2 f2e2 d2d2  | 
w:   | 
c2B2 A2G4A4BA B2B2 BcB2 A2G2 F2E4B2 AGG8z16z16|
w:   | 


